brandFactory_export/2.Regular/Ruta recorrido_2Regular.svg

<?xml version="1.0" encoding="UTF-8"?>
<svg width="24px" height="24px" viewBox="0 0 24 24" version="1.1" xmlns="http://www.w3.org/2000/svg" xmlns:xlink="http://www.w3.org/1999/xlink">
    <title>2.Regular/Ruta recorrido_2Regular</title>
    <g id="Symbols" stroke="none" stroke-width="1" fill="none" fill-rule="evenodd">
        <g id="2.Regular/Ruta-recorrido_2Regular" fill="#5CB615" fill-rule="nonzero">
            <path d="M5.55630252,14.4067227 C6.1210084,14.4067227 6.34957983,14.1747899 6.34957983,13.610084 C6.34957983,13.0420168 6.11764706,12.8134454 5.55630252,12.8134454 C4.99495798,12.8134454 4.76302521,13.0453782 4.76302521,13.610084 C4.76302521,14.1747899 4.99159664,14.4067227 5.55630252,14.4067227 Z M5.55630252,11.3445378 C6.92773109,11.3445378 7.81176471,12.2319328 7.81176471,13.6067227 C7.81176471,14.9815126 6.92436975,15.8689076 5.55630252,15.8689076 C4.18487395,15.8689076 3.30084034,14.9815126 3.30084034,13.6067227 C3.30084034,12.2319328 4.18823529,11.3445378 5.55630252,11.3445378 Z M19.6806723,8.78655462 C20.6218487,7.61344538 22.1579832,5.3210084 22.161385,3.95630252 C22.1680672,2.3092437 21.3378151,1.47563025 19.697479,1.46890756 L19.6840336,1.46890756 C18.8773109,1.46890756 18.2588235,1.67731092 17.8453782,2.08739496 C17.4285714,2.50084034 17.216785,3.12268908 17.216785,3.9394958 C17.210084,5.30756303 18.7630252,7.62689076 19.6806723,8.78655462 L19.6806723,8.78655462 Z M19.7008403,0 C22.1277311,0.00672268908 23.6336134,1.52268908 23.6235797,3.95966387 C23.6168067,6.42689076 20.6420168,9.97310924 20.1915966,10.4235294 C19.9092437,10.7092437 19.4453782,10.7092437 19.1630252,10.4268908 L19.1596639,10.4235294 C19.102521,10.3663866 19.0487395,10.3058824 18.9983193,10.2420168 C18.9680672,10.594958 18.6823529,10.8739496 18.3260504,10.897479 C18.2957983,10.9008403 18.205042,10.9109244 18.0705882,10.9310924 C17.6705882,10.9882353 17.3008403,10.7092437 17.2436975,10.312605 C17.1865546,9.91260504 17.4621849,9.54285714 17.8621849,9.48235294 C17.989916,9.46218487 18.1142857,9.4487395 18.2420168,9.43529412 C18.2823529,9.43193277 18.3159664,9.4487395 18.3529412,9.4487395 C17.3277311,8.11428571 15.7512605,5.7210084 15.7546165,3.93277311 C15.7579832,2.73277311 16.1243697,1.73445378 16.8168067,1.04537815 C17.502521,0.359663866 18.4941176,0 19.687395,0 L19.7008403,0 Z M19.687395,4.26890756 C20.0605042,4.26890756 20.2151261,4.11764706 20.2151261,3.74117647 C20.2151261,3.36806723 20.0638655,3.21344538 19.687395,3.21344538 C19.3142857,3.21344538 19.1630252,3.36470588 19.1630252,3.74117647 C19.1630252,4.11428571 19.3142857,4.26890756 19.687395,4.26890756 Z M19.687395,2.23529412 C20.5983193,2.23529412 21.189916,2.82689076 21.189916,3.73781513 C21.189916,4.65210084 20.6016807,5.24033613 19.687395,5.24033613 C18.7764706,5.24033613 18.1882353,4.6487395 18.1882353,3.73781513 C18.1882353,2.82689076 18.7764706,2.23529412 19.687395,2.23529412 Z M18.7966387,18.3394958 C19.1764706,18.4840336 19.3647059,18.9042017 19.2235294,19.2840336 C19.0857143,19.6504202 18.8638655,20 18.5680672,20.3226891 C18.2957983,20.6184874 17.8352941,20.6352941 17.5394958,20.3630252 L17.5361345,20.3596639 C17.2403361,20.0840336 17.2235294,19.6201681 17.4991597,19.3243697 C17.6672269,19.1428571 17.7882353,18.9546218 17.8588235,18.7663866 C18,18.389916 18.4201681,18.1983193 18.7966387,18.3394958 Z M16.1512605,20.2453782 C16.5142857,20.0672269 16.9546218,20.2218487 17.1294118,20.5848739 C17.307563,20.9478992 17.1529412,21.3882353 16.789916,21.5630252 C16.4941176,21.707563 16.1781513,21.8420168 15.8453782,21.9630252 C15.4722689,22.1042017 15.0521008,21.9193277 14.9109244,21.5428571 C14.9109244,21.5394958 14.907563,21.5361345 14.907563,21.5327731 C14.7663866,21.1563025 14.9546218,20.7327731 15.3344538,20.5915966 C15.6134454,20.4907563 15.8857143,20.3764706 16.1512605,20.2453782 L16.1512605,20.2453782 Z M14.4403361,16.3764706 C14.0705882,16.2151261 13.8991597,15.7815126 14.0605042,15.4117647 C14.2151261,15.0588235 14.6117647,14.887395 14.9747899,15.0117647 C15.2605042,15.1260504 15.5563025,15.2336134 15.8521008,15.3378151 C16.2319328,15.4756303 16.4302521,15.8957983 16.292437,16.2756303 C16.1546218,16.6554622 15.7344538,16.8537815 15.3546218,16.7159664 C15.0521008,16.605042 14.7394958,16.4941176 14.4403361,16.3764706 Z M15.1731092,11.5932773 C14.7697479,11.589916 14.4403361,11.2605042 14.4436975,10.8571429 C14.4436975,10.5445378 14.6453782,10.2689076 14.9411765,10.1680672 C15.2672269,10.0605042 15.589916,9.96302521 15.902521,9.88235294 C16.292437,9.77815126 16.6957983,10.010084 16.7966387,10.4033613 C16.897479,10.7966387 16.6689076,11.1966387 16.2756303,11.297479 C15.9932773,11.3747899 15.697479,11.4588235 15.405042,11.5596639 C15.3310924,11.5798319 15.2537815,11.5932773 15.1731092,11.5932773 L15.1731092,11.5932773 Z M12.7226891,13.0151261 C12.3193277,13.0151261 11.989916,12.6857143 11.9932773,12.2823529 C11.9932773,12.1109244 12.0537815,11.9428571 12.1647059,11.8117647 C12.389916,11.5394958 12.6857143,11.2840336 13.0453782,11.0487395 C13.3848739,10.8268908 13.8386555,10.9210084 14.0605042,11.2605042 C14.2823529,11.6 14.1882353,12.0537815 13.8487395,12.2756303 C13.610084,12.4336134 13.4184874,12.594958 13.2840336,12.7563025 C13.1428571,12.9210084 12.9378151,13.0151261 12.7226891,13.0151261 Z M13.0319328,15.5294118 C12.8638655,15.5294118 12.6991597,15.4689076 12.5680672,15.3613445 C12.2319328,15.092437 11.9596639,14.7529412 11.7781513,14.3630252 C11.6134454,13.9932773 11.7747899,13.5596639 12.1411765,13.3915966 C12.5109244,13.2268908 12.9411765,13.3915966 13.1092437,13.7579832 C13.1831933,13.9226891 13.3109244,14.0773109 13.4991597,14.2319328 C13.8117647,14.4907563 13.8554622,14.9546218 13.5966387,15.2672269 C13.4554622,15.4319328 13.2470588,15.5294118 13.0319328,15.5294118 L13.0319328,15.5294118 Z M17.0352941,17.4016807 C16.6756303,17.2168067 16.5378151,16.7731092 16.7226891,16.4134454 C16.907563,16.0537815 17.3512605,15.9159664 17.7109244,16.1008403 C18.1042017,16.3058824 18.4134454,16.5176471 18.6621849,16.7529412 C18.9546218,17.0319328 18.9680672,17.4991597 18.6857143,17.7915966 C18.5478992,17.9361345 18.3596639,18.0168067 18.1579832,18.0201681 C17.9731092,18.0201681 17.7915966,17.9495798 17.6571429,17.8218487 C17.4689076,17.6537815 17.2605042,17.5159664 17.0352941,17.4016807 Z M10.8436975,21.6638655 C11.2638655,21.6168067 11.6168067,21.8789916 11.6739496,22.2789916 C11.7344538,22.6789916 11.4588235,23.0521008 11.0588235,23.112605 C10.7226891,23.1630252 10.4,23.2067227 10.0907563,23.2436975 C9.6907563,23.2941176 9.32773109,23.0117647 9.27731092,22.6117647 L9.27731092,22.605042 C9.22689076,22.205042 9.51260504,21.8386555 9.91260504,21.7882353 C10.2117647,21.7546218 10.5243697,21.7109244 10.8436975,21.6638655 L10.8436975,21.6638655 Z M13.589916,21.1294118 C13.9798319,21.0319328 14.3764706,21.2672269 14.4739496,21.6571429 L14.4739496,21.6638655 C14.5714286,22.0571429 14.3327731,22.4537815 13.9428571,22.5512605 C13.6235294,22.6319328 13.3042017,22.7058824 12.9815126,22.7731092 C12.5848739,22.8537815 12.1983193,22.6016807 12.1176471,22.205042 C12.0336134,21.8084034 12.2890756,21.4218487 12.6857143,21.3378151 C12.9882353,21.2739496 13.2907563,21.2033613 13.589916,21.1294118 L13.589916,21.1294118 Z M5.5394958,21.794958 C6.94117647,20.1243697 9.64369748,16.2218487 9.65044418,13.9294118 C9.65378151,12.6016807 9.30420168,11.5731092 8.60840336,10.8705882 C7.91596639,10.1714286 6.89411765,9.81512605 5.56638655,9.81176471 L5.54621849,9.81176471 C2.88403361,9.81176471 1.47226891,11.2268908 1.46217228,13.9058824 C1.45546218,16.2184874 4.14117647,20.1243697 5.5394958,21.794958 Z M8.04369748,21.9764706 C8.44369748,21.9529412 8.78991597,22.2521008 8.8302521,22.6521008 C8.8605042,23.0554622 8.56134454,23.4084034 8.15798319,23.4386555 C7.71764706,23.4722689 7.40504202,23.4890756 7.26386555,23.4991597 C7.25042017,23.502521 7.23697479,23.502521 7.22016807,23.502521 C6.87394958,23.4991597 6.57142857,23.2672269 6.48067227,22.9310924 C6.28907563,23.1596639 6.13781513,23.3277311 6.05378151,23.4084034 C5.77142857,23.6941176 5.31092437,23.697479 5.02521008,23.4151261 L5.01848739,23.4084034 C4.39327731,22.7798319 -0.0100840336,17.4756303 -1.7292565e-05,13.8991597 C0.0100840336,10.4201681 2.08403361,8.34621849 5.54621849,8.34621849 L5.57310924,8.34621849 C7.27731092,8.34957983 8.68571429,8.86722689 9.64705882,9.83865546 C10.6117647,10.810084 11.1159664,12.2252101 11.1126217,13.9327731 C11.102521,16.5378151 8.71932773,20.0840336 7.20672269,22.0336134 C7.34789916,22.0268908 7.64033613,22.010084 8.04369748,21.9764706 Z" id="Ruta-recorrido_2Regular"></path>
        </g>
    </g>
</svg>

<svg width="24" height="24" viewBox="0 0 24 24" xmlns="http://www.w3.org/2000/svg"><path d="M5.556 14.407c.565 0 .794-.232.794-.797 0-.568-.232-.797-.794-.797-.561 0-.793.232-.793.797 0 .565.229.797.793.797zm0-3.062c1.372 0 2.256.887 2.256 2.262s-.888 2.262-2.256 2.262c-1.371 0-2.255-.887-2.255-2.262s.887-2.262 2.255-2.262zm14.125-2.558c.94-1.174 2.477-3.466 2.48-4.83.007-1.648-.823-2.481-2.464-2.488h-.013c-.807 0-1.425.208-1.839.618-.416.414-.628 1.036-.628 1.852-.007 1.369 1.546 3.688 2.464 4.848zM19.7 0c2.427.007 3.933 1.523 3.923 3.96-.007 2.467-2.982 6.013-3.432 6.464a.727.727 0 01-1.029.003l-.003-.003a2.073 2.073 0 01-.162-.182.72.72 0 01-.672.655 6.53 6.53 0 00-.255.034.732.732 0 01-.209-1.449 7.32 7.32 0 01.38-.047c.04-.003.074.014.11.014-1.024-1.335-2.6-3.728-2.597-5.516.003-1.2.37-2.199 1.062-2.888C17.503.36 18.494 0 19.687 0h.014zm-.014 4.269c.374 0 .528-.151.528-.528 0-.373-.151-.528-.528-.528-.373 0-.524.152-.524.528 0 .373.151.528.524.528zm0-2.034c.911 0 1.503.592 1.503 1.503 0 .914-.588 1.502-1.503 1.502-.91 0-1.499-.591-1.499-1.502s.588-1.503 1.5-1.503zm-.89 16.104c.38.145.568.565.427.945-.138.366-.36.716-.656 1.039a.728.728 0 01-1.029.04l-.003-.003a.733.733 0 01-.037-1.036c.168-.181.29-.37.36-.558a.729.729 0 01.938-.427zm-2.646 1.906a.731.731 0 11.639 1.318 9.723 9.723 0 01-.945.4.723.723 0 01-.934-.42c0-.004-.003-.007-.003-.01a.73.73 0 01.426-.941c.28-.101.552-.216.817-.347zm-1.71-3.869a.735.735 0 01-.38-.964.735.735 0 01.914-.4c.286.114.581.222.877.326a.733.733 0 01-.497 1.378c-.303-.111-.616-.222-.915-.34zm.732-4.783a.734.734 0 01-.73-.736.73.73 0 01.498-.689c.326-.107.649-.205.962-.286a.728.728 0 01.894.521.73.73 0 01-.521.894c-.283.078-.579.162-.871.263a.879.879 0 01-.232.033zm-2.45 1.422a.73.73 0 01-.73-.733c0-.171.06-.34.172-.47.225-.273.52-.528.88-.763a.733.733 0 11.804 1.227c-.239.158-.43.319-.565.48a.74.74 0 01-.561.26zm.309 2.514a.735.735 0 01-.464-.168 2.788 2.788 0 01-.79-.998.738.738 0 01.363-.971c.37-.165.8 0 .968.366.074.165.202.32.39.474a.736.736 0 01.098 1.035.75.75 0 01-.565.262zm4.003 1.873a.733.733 0 01.676-1.301c.393.205.702.417.951.652a.734.734 0 01.024 1.039.73.73 0 01-1.029.03 2.889 2.889 0 00-.622-.42zm-6.191 4.262c.42-.047.773.215.83.615.06.4-.215.773-.615.834-.336.05-.659.094-.968.13a.727.727 0 01-.814-.631v-.007a.733.733 0 01.636-.817c.299-.033.611-.077.93-.124zm2.746-.535a.728.728 0 01.884.528v.007a.732.732 0 01-.531.887c-.32.08-.639.155-.961.222a.732.732 0 01-.296-1.435c.302-.064.605-.135.904-.209zm-8.05.666c1.401-1.67 4.104-5.573 4.11-7.866.004-1.327-.346-2.356-1.042-3.058-.692-.7-1.714-1.056-3.042-1.06h-.02c-2.662 0-4.074 1.416-4.084 4.095-.007 2.312 2.68 6.218 4.077 7.889zm2.504.181a.75.75 0 01.786.676.731.731 0 01-.672.787c-.44.033-.753.05-.894.06-.014.004-.027.004-.044.004a.773.773 0 01-.74-.572 7.087 7.087 0 01-.426.477.727.727 0 01-1.029.007l-.007-.007C4.393 22.78-.01 17.476 0 13.9c.01-3.479 2.084-5.553 5.546-5.553h.027c1.704.004 3.113.521 4.074 1.493.965.971 1.469 2.386 1.466 4.094-.01 2.605-2.394 6.151-3.906 8.1.14-.006.433-.023.837-.057z" fill="#5CB615" fill-rule="nonzero"/></svg>
